X: 2079
T: Uzicka Carlama
T: Uzhichka Charlama
O: Srbija
Z: 1987 by John Chambers <jc@eddie.mit.edu> http://eddie.mit.edu/~jc/music/abc/
M: 2/4
L: 1/16
K: Am
|: "Dm"c'ba^g a2b2 \
| ^g2a2 f2g2 \
| fed^c d2e2 ^c2d2 \
| "E"~B4 \
| "Dm"fed^c d2e2 \
| ^c2d2 "E"~B3A \
| ^GAB2 "B7"BAGA \
| "E"B4 [B4E4] :|
K: A
|: "A"[e2c2][c2A2] "E7"[d4B4] \
| "A"[c2A2][A2E2] "E7"[B4G4] \
| "A"[e2c2][c2A2] "E7"[d4B4] \
| "A"[c2A2][A2E2] "E7"[B4G4] \
| "A"[e2c2][c2A2] "E7"[d4B4] \
| "A"[c2A2][A2E2] "E7"[d4B4] \
| "A"[c2A2][A2E2] "B7"[G2E2][A2F2] \
| "E7"[B4G4E4] [B4G4E4] :|
